ir/shopping-bag-arrow-down.svg

<svg stroke-width="1.5" viewBox="0 0 24 24" fill="none" xmlns="http://www.w3.org/2000/svg" height="1em" width="1em">
  <path d="M16.5 21H18.6688C19.8945 21 20.8319 19.9074 20.6455 18.6959L19.2609 9.69589C19.1108 8.72022 18.2713 8 17.2842 8H6.71584C5.7287 8 4.8892 8.72022 4.73909 9.69589L3.35448 18.6959C3.16809 19.9074 4.10545 21 5.33122 21H7.5" stroke="currentColor" stroke-linecap="round" stroke-linejoin="round"/>
  <path d="M12 12V19M12 19L15 16M12 19L9 16" stroke="currentColor" stroke-linecap="round" stroke-linejoin="round"/>
  <path d="M14 5C14 3.89543 13.1046 3 12 3C10.8954 3 10 3.89543 10 5" stroke="currentColor" stroke-linecap="round" stroke-linejoin="round"/>
</svg>

<svg stroke-width="1.5" viewBox="0 0 24 24" fill="none" xmlns="http://www.w3.org/2000/svg" height="1em" width="1em">
  <path d="M16.5 21h2.169a2 2 0 0 0 1.976-2.304l-1.384-9A2 2 0 0 0 17.284 8H6.716a2 2 0 0 0-1.977 1.696l-1.385 9A2 2 0 0 0 5.331 21H7.5m4.5-9v7m0 0 3-3m-3 3-3-3m5-11a2 2 0 1 0-4 0" stroke="currentColor" stroke-linecap="round" stroke-linejoin="round"/>
</svg>
